!!!OTL: ES KLINGT EIN HOHER KLANG
!!!ARE: Europa, Mitteleuropa, Deutschland
!!!SCT: F0397
!!!YEM: Copyright 1995, estate of Helmut Schaffrath.
**kern
*ICvox
*Ivox
*M4/4
*k[b-]
*F:
{4F
=1
4.F
8A
4c
4c
=2
2.c}
{4G
=3
4.A
8c
4f
4f
=4
2.e}
{4c
=5
4.d
8d
4.g
8g
=6
4.c}
{8c
4f
4c
=7
4.F
8G
4A
4Bn
=8
2.c}
{4G
=9
2G
2G
=10
4.c
8e
4.e
8g}
=11
{4.g
8f
4e
4d
=12
4c
4G
4E}
{4G
=13
2G
2G
=14
4.c
8e
4.e
8g}
=15
{4.g
8f
4e
4d
=16
4c
4G
4E}
{4c
=17
4.f
8e
4d
4d
=18
4.c
8B-
4A}
{4G
=19
4A
4c
4d
4g
=20
2f
2e
=21
2f
4r}
{4c
=22
4.f
8e
4d
4d
=23
4.c
8B-
4A}
{4G
=24
4A
4c
4d
4g
=25
2f
2e
=26
2f
4r}
==
!!!AGN: Vaterlands -, Heimat - Lied, nationalistisch
!!!ONB: ESAC (Essen Associative Code) Database: FINK
!!!AMT: simple quadruple
!!!AIN: vox
!!!EED: Helmut Schaffrath
!!!EEV: 1.0
*-
